flaticon/productivity-and-development/transfer.svg

<svg xmlns="http://www.w3.org/2000/svg" width="32" height="32" viewBox="0 0 24 24">
    <path d="M23.519531.683594L13.824219.683594C13.558594.683594 13.34375.902344 13.34375 1.167969L13.34375 10.859375C13.34375 11.125 13.558594 11.339844 13.824219 11.339844L23.519531 11.339844C23.785156 11.339844 24 11.125 24 10.859375L24 1.167969C24 .902344 23.785156.683594 23.519531.683594zM14.308594 1.648438L23.035156 1.648438 23.035156 4.015625 14.308594 4.015625zM23.035156 10.378906L14.308594 10.378906 14.308594 4.980469 23.035156 4.980469zM10.175781 12.660156L.480469 12.660156C.214844 12.660156 0 12.875 0 13.140625L0 22.832031C0 23.097656.214844 23.316406.480469 23.316406L10.175781 23.316406C10.441406 23.316406 10.65625 23.097656 10.65625 22.832031L10.65625 13.140625C10.65625 12.875 10.441406 12.660156 10.175781 12.660156zM.964844 13.621094L9.691406 13.621094 9.691406 15.988281.964844 15.988281zM9.691406 22.351562L.964844 22.351562.964844 16.953125 9.691406 16.953125zM20.511719 14.621094L18.789062 16.359375 19.472656 17.039062 20.371094 16.128906 20.371094 20.019531 15.3125 20.019531 15.3125 20.984375 20.851562 20.984375C21.117188 20.984375 21.335938 20.765625 21.335938 20.5L21.335938 16.128906 22.234375 17.039062 22.917969 16.359375 21.195312 14.621094C21.015625 14.4375 20.691406 14.4375 20.511719 14.621094zM3.148438 9.523438C3.269531 9.523438 3.390625 9.476562 3.484375 9.382812L5.257812 7.644531 4.582031 6.957031 3.628906 7.894531 3.628906 3.980469 8.6875 3.980469 8.6875 3.015625 3.148438 3.015625C2.882812 3.015625 2.667969 3.234375 2.667969 3.5L2.667969 7.894531 1.710938 6.957031 1.039062 7.644531 2.808594 9.382812C2.902344 9.476562 3.027344 9.523438 3.148438 9.523438zM3.148438 9.523438"/>
    <path d="M19.128906 2.328125L21.625 2.328125 21.625 3.292969 19.128906 3.292969zM6.214844 14.324219L8.710938 14.324219 8.710938 15.285156 6.214844 15.285156zM6.214844 14.324219"/>
</svg>

<svg xmlns="http://www.w3.org/2000/svg" width="32" height="32" viewBox="0 0 24 24">
    <path d="M23.52.684h-9.696a.483.483 0 0 0-.48.484v9.691c0 .266.215.48.48.48h9.696a.48.48 0 0 0 .48-.48V1.168a.483.483 0 0 0-.48-.484zm-9.211.964h8.726v2.368H14.31zm8.726 8.73H14.31V4.98h8.726zm0 0M10.176 12.66H.48a.48.48 0 0 0-.48.48v9.692c0 .266.215.484.48.484h9.696c.265 0 .48-.218.48-.484v-9.691a.48.48 0 0 0-.48-.48zm-9.211.961H9.69v2.367H.965zm8.726 8.73H.965v-5.398H9.69zm0 0M20.512 14.621l-1.723 1.738.684.68.898-.91v3.89h-5.058v.965h5.539a.487.487 0 0 0 .484-.484v-4.371l.898.91.684-.68-1.723-1.738a.493.493 0 0 0-.683 0zm0 0M3.148 9.523a.474.474 0 0 0 .336-.14l1.774-1.738-.676-.688-.953.938V3.98h5.058v-.964H3.149a.483.483 0 0 0-.48.484v4.395l-.957-.938-.672.688 1.77 1.738c.093.094.218.14.34.14zm0 0"/>
    <path d="M19.129 2.328h2.496v.965h-2.496zm0 0M6.215 14.324H8.71v.961H6.215zm0 0"/>
</svg>
